icons/credit.svg

<svg version="1.1" xmlns="http://www.w3.org/2000/svg" width="64" height="64">
    <path d="M0 0 C2.87109375 1.15625 2.87109375 1.15625 5 3 C6.4176136 6.84548058 6.18198552 8.5515543 4.63671875 12.359375 C3.99347656 13.47828125 3.35023437 14.5971875 2.6875 15.75 C2.05199219 16.87921875 1.41648437 18.0084375 0.76171875 19.171875 C-1 22 -1 22 -3 24 C-8.02009569 24.74066986 -8.02009569 24.74066986 -11 24 C-13.30462254 22.02031119 -14.58978368 19.66485717 -16 17 C-16.39316406 16.30519531 -16.78632813 15.61039063 -17.19140625 14.89453125 C-19.19129833 11.18044595 -20 9.3611613 -20 5 C-14.92359037 -1.56947129 -7.7772973 -1.0915505 0 0 Z " fill="#FFFFFF" transform="translate(39,21)"/>
    <path d="M0 0 C4.79321669 -0.90438051 6.88848183 -0.74293183 11.015625 2.015625 C13.98830472 4.47933945 16.70828474 6.8648982 19 10 C19.23463821 15.67177187 15.77324294 20.71238935 13.125 25.5625 C12.67769531 26.39974609 12.23039062 27.23699219 11.76953125 28.09960938 C10.90713865 29.70610179 10.0358933 31.30788325 9.15454102 32.90405273 C8.21370065 34.61204904 7.30680197 36.33870676 6.41015625 38.0703125 C5.71212891 39.02550781 5.71212891 39.02550781 5 40 C1.3125 40.3125 1.3125 40.3125 -2 40 C-2 38.68 -2 37.36 -2 36 C-0.515 35.505 -0.515 35.505 1 35 C2.22440859 33.34950543 2.22440859 33.34950543 3.2265625 31.2890625 C3.6184375 30.53882812 4.0103125 29.78859375 4.4140625 29.015625 C4.81367187 28.22671875 5.21328125 27.4378125 5.625 26.625 C6.03234375 25.84382813 6.4396875 25.06265625 6.859375 24.2578125 C8.44800136 21.18576683 9.90419361 18.28741916 11 15 C11.66 15 12.32 15 13 15 C12.65652573 11.79424013 12.0292146 11.02483241 9.5 8.875 C8.675 8.25625 7.85 7.6375 7 7 C6.67 6.34 6.34 5.68 6 5 C3.67843403 4.59270772 1.3431213 4.25561323 -1 4 C-0.67 2.68 -0.34 1.36 0 0 Z " fill="#FFFFFF" transform="translate(37,13)"/>
    <path d="M0 0 C0.33 1.32 0.66 2.64 1 4 C-0.5778125 4.0928125 -0.5778125 4.0928125 -2.1875 4.1875 C-7.77781182 5.37887793 -9.92212649 8.38318974 -13 13 C-13 13.66 -13 14.32 -13 15 C-12.34 15 -11.68 15 -11 15 C-3 31 -3 31 -2.06591797 33.18066406 C-1.06696988 35.3436134 -1.06696988 35.3436134 2 36 C2 37.32 2 38.64 2 40 C-2.22030825 41.03354488 -2.22030825 41.03354488 -5 40 C-7.54825342 36.87488921 -9.3078949 33.42569591 -11.08984375 29.81884766 C-12.02913623 27.94177442 -13.02331245 26.10273777 -14.03125 24.26171875 C-19.00985276 14.94023501 -19.00985276 14.94023501 -18.97265625 11.390625 C-15.74925738 3.46805428 -8.30035869 -1.38339311 0 0 Z " fill="#FFFFFF" transform="translate(27,13)"/>
</svg>

<?xml version="1.0" encoding="UTF-8"?>
<svg version="1.1" viewBox="0 0 64 64" xmlns="http://www.w3.org/2000/svg">
    <path transform="translate(39,21)" d="m0 0c2.8711 1.1562 2.8711 1.1562 5 3 1.4176 3.8455 1.182 5.5516-0.36328 9.3594-0.64324 1.1189-1.2865 2.2378-1.9492 3.3906-0.63551 1.1292-1.271 2.2584-1.9258 3.4219-1.7617 2.8281-1.7617 2.8281-3.7617 4.8281-5.0201 0.74067-5.0201 0.74067-8 0-2.3046-1.9797-3.5898-4.3351-5-7-0.39316-0.6948-0.78633-1.3896-1.1914-2.1055-1.9999-3.7141-2.8086-5.5334-2.8086-9.8945 5.0764-6.5695 12.223-6.0916 20-5z" fill="#fff"/>
    <path transform="translate(37,13)" d="m0 0c4.7932-0.90438 6.8885-0.74293 11.016 2.0156 2.9727 2.4637 5.6927 4.8493 7.9844 7.9844 0.23464 5.6718-3.2268 10.712-5.875 15.562-0.4473 0.83725-0.89461 1.6745-1.3555 2.5371-0.86239 1.6065-1.7336 3.2083-2.615 4.8044-0.94084 1.708-1.8477 3.4347-2.7444 5.1663-0.69803 0.9552-0.69803 0.9552-1.4102 1.9297-3.6875 0.3125-3.6875 0.3125-7 0v-4l3-1c1.2244-1.6505 1.2244-1.6505 2.2266-3.7109 0.39188-0.75023 0.78375-1.5005 1.1875-2.2734 0.39961-0.78891 0.79922-1.5778 1.2109-2.3906 0.40734-0.78117 0.81469-1.5623 1.2344-2.3672 1.5886-3.072 3.0448-5.9704 4.1406-9.2578h2c-0.34347-3.2058-0.97079-3.9752-3.5-6.125l-2.5-1.875-1-2c-2.3216-0.40729-4.6569-0.74439-7-1l1-4z" fill="#fff"/>
    <path transform="translate(27,13)" d="m0 0 1 4c-1.5778 0.092812-1.5778 0.092812-3.1875 0.1875-5.5903 1.1914-7.7346 4.1957-10.812 8.8125v2h2c8 16 8 16 8.9341 18.181 0.99895 2.1629 0.99895 2.1629 4.0659 2.8193v4c-4.2203 1.0335-4.2203 1.0335-7 0-2.5483-3.1251-4.3079-6.5743-6.0898-10.181-0.93929-1.8771-1.9335-3.7161-2.9414-5.5571-4.9786-9.3215-4.9786-9.3215-4.9414-12.871 3.2234-7.9226 10.672-12.774 18.973-11.391z" fill="#fff"/>
</svg>
